dist/svg/desktop-block.svg

<!-- Generated by Trend Micro Style Portal -->
<svg version="1.1" xmlns="http://www.w3.org/2000/svg" width="16" height="16" viewBox="0 0 16 16">
  <title>desktop-block</title>
  <path fill="rgb(34,34,34)" d="M11 6c-2.761 0-5 2.239-5 5v0c0 2.761 2.239 5 5 5s5-2.239 5-5c0-2.761-2.239-5-5-5v0zM14.5 11.001c-0 0.699-0.209 1.349-0.568 1.892l0.008-0.013-4.82-4.82-0.013 0.008c0.537-0.354 1.195-0.564 1.902-0.564 1.928 0 3.49 1.562 3.491 3.49v0.007zM11 14.5h-0.006c-1.927-0-3.49-1.563-3.49-3.49v-0c-0-0.003-0-0.007-0-0.011 0-0.699 0.207-1.349 0.564-1.893l-0.008 0.013 4.82 4.82 0.013-0.008c-0.533 0.355-1.188 0.567-1.893 0.568h-0zM5 11h-4c-0.552-0-1-0.448-1-1v-9c0-0.552 0.448-1 1-1h12c0.552 0 1 0.448 1 1v4.8c-0.566-0.335-1.226-0.585-1.928-0.71l-0.036-0.005-0.036-0.005v-3.080h-10v7h3.34c-0.215 0.587-0.34 1.265-0.34 1.973 0 0.006 0 0.013 0 0.019v-0.001 0.009zM5.070 11.89c0.12 0.802 0.382 1.523 0.76 2.167l-0.015-0.028-0.015-0.029h-3.3c-0.274-0.003-0.495-0.226-0.495-0.5 0-0.181 0.096-0.34 0.241-0.428l0.002-0.001 0.002-0.001z"></path>
</svg>

<svg width="16" height="16" viewBox="0 0 16 16" fill="rgb(34, 34, 34)" xmlns="http://www.w3.org/2000/svg"><title>desktop-block</title><path d="M11 6C8.239 6 6 8.239 6 11C6 13.761 8.239 16 11 16C13.761 16 16 13.761 16 11C16 8.239 13.761 6 11 6ZM14.5 11.001C14.5 11.7 14.291 12.35 13.932 12.893L13.94 12.88L9.12 8.06L9.107 8.068C9.644 7.714 10.302 7.504 11.009 7.504C12.937 7.504 14.499 9.066 14.5 10.994V11.001ZM11 14.5H10.994C9.067 14.5 7.504 12.937 7.504 11.01C7.504 11.007 7.504 11.003 7.504 10.999C7.504 10.3 7.711 9.65 8.068 9.106L8.06 9.119L12.88 13.939L12.893 13.931C12.36 14.286 11.705 14.498 11 14.499V14.5ZM5 11H1C0.448 11 0 10.552 0 10V1C0 0.448 0.448 0 1 0H13C13.552 0 14 0.448 14 1V5.8C13.434 5.465 12.774 5.215 12.072 5.09L12.036 5.085L12 5.08V2H2V9H5.34C5.125 9.587 5 10.265 5 10.973C5 10.979 5 10.986 5 10.992V11ZM5.07 11.89C5.19 12.692 5.452 13.413 5.83 14.057L5.815 14.029L5.8 14H2.5C2.226 13.997 2.005 13.774 2.005 13.5C2.005 13.319 2.101 13.16 2.246 13.072L2.248 13.071L2.25 13.07L5.07 11.89Z" fill="rgb(34, 34, 34)" fill-opacity="1.00"/></svg>
